X: 10453
T: THE JOCKEY DANCE
C: Arranged by W. B. Laybourn
R: hornpipe, reel
B: K\"ohler's Violin Repository, v.1, 1885 p.45 #3
F: http://www.archive.org/details/klersviolinrepos01edin
Z: 2011 John Chambers <jc:trillian.mit.edu>
M: C|
L: 1/8
K: D
uA2 |\
dAf2 dAf2 | defg afed | cAe2 cAe2 | cdef gecA |
dAf2 dAf2 | defg afed | c(a^ga) =gABc | d2f2 d2 :: ud2 |
cAe2 cAe2 | cdef gecA | dAf2 dAf2 | defg afed |
cAe2 cAe2 | cdef gfed | c(a^ga) =gABc | d2f2 d2 :|

%%sep 2 1 500

